X:1     %Music
T:Jim Along Josie
B:Singing Together, Spring 1967, BBC Publications
F:http://www.folkinfo.org/songs
M:2/4     %Meter
L:1/16     %
K:F
c2cc (A2F2) |GGF2 D2F2 |c2cc (A2F2) |GGG2 F2 z2 |
w:Hey Jim a-long,_ jim a-long Jo-sie, Hey Jim a-long,_ jim a-long Jo. 
c2cc (A2F2) |GGF2 D2F2 |c2cc (A2F2) |GGG2 F2 z2 |]
w:Hey Jim a-long,_ jim a-long Jo-sie, Hey Jim a-long,_ jim a-long Jo. 